X: 18245
T: Humours Of Lisheen, The
R: jig
M: 6/8
K: Gmajor
Bd|:"G"efg {g}edB|cBA "Em"{d}BGE|~G3 "G".B.d.B|.BAG "D"ABd|
"G"efg edB|"Am"cBA "Em"BGE|~G3 "G".B.d.B|1 "Em"AGF "G"GBd:|2 "Em"AGF "G"G2D||
|:"G"GBd "Em"ggg|agf "Em"g2e|fed "Bm"edB|"Am"cBA "Em"BGE|
"G"GBd ggg|"D"agf "Em"g2e|"G"fed edB|1 "Em"AGF "G"G2D:|2 "Em"AGF "G"GBd||

